flaticon/sewing/cutting-tool.svg

<svg xmlns="http://www.w3.org/2000/svg" width="32" height="32" viewBox="0 0 24 24">
    <path d="M20.625 19.179688C20.785156 19.019531 20.785156 18.773438 20.625 18.609375L17.9375 15.925781C17.777344 15.761719 17.53125 15.761719 17.367188 15.925781 17.207031 16.089844 17.207031 16.332031 17.367188 16.496094L20.054688 19.179688C20.136719 19.261719 20.214844 19.300781 20.339844 19.300781 20.460938 19.300781 20.582031 19.261719 20.625 19.179688zM16.066406 16.332031C15.902344 16.171875 15.660156 16.171875 15.496094 16.332031 15.335938 16.496094 15.335938 16.738281 15.496094 16.902344L16.472656 17.878906C16.554688 17.960938 16.636719 18 16.757812 18 16.839844 18 16.960938 17.960938 17.042969 17.878906 17.207031 17.714844 17.207031 17.472656 17.042969 17.308594zM18.183594 18.449219C18.019531 18.285156 17.777344 18.285156 17.613281 18.449219 17.449219 18.609375 17.449219 18.855469 17.613281 19.019531L19.566406 20.96875C19.648438 21.050781 19.726562 21.09375 19.851562 21.09375 19.972656 21.09375 20.054688 21.050781 20.136719 20.96875 20.296875 20.808594 20.296875 20.5625 20.136719 20.402344zM21.070312 21.335938C20.90625 21.175781 20.664062 21.175781 20.5 21.335938 20.339844 21.5 20.339844 21.742188 20.5 21.90625L20.988281 22.394531C21.070312 22.476562 21.152344 22.515625 21.273438 22.515625 21.355469 22.515625 21.476562 22.476562 21.558594 22.394531 21.722656 22.230469 21.722656 21.988281 21.558594 21.824219zM21.070312 21.335938"/>
    <path d="M 23.960938 20.808594 C 23.878906 20.644531 22.046875 16.414062 16.390625 13.28125 C 16.351562 13.242188 16.269531 13.242188 16.1875 13.242188 C 16.121094 13.242188 15.535156 13.269531 14.84375 13.785156 L 9.453125 8.398438 C 9.960938 8.375 10.417969 8.054688 10.574219 7.546875 C 10.738281 7.015625 10.535156 6.488281 10.085938 6.160156 C 10.003906 6.082031 9.921875 5.957031 9.921875 5.835938 C 9.921875 5.714844 9.964844 5.59375 10.085938 5.511719 C 10.574219 5.1875 10.738281 4.65625 10.574219 4.128906 C 10.410156 3.597656 9.964844 3.273438 9.394531 3.273438 C 9.273438 3.273438 9.152344 3.234375 9.070312 3.109375 C 8.988281 2.988281 8.988281 2.867188 9.027344 2.746094 C 9.191406 2.214844 9.027344 1.6875 8.582031 1.363281 C 8.132812 1.035156 7.5625 1.035156 7.117188 1.363281 C 6.996094 1.441406 6.871094 1.484375 6.75 1.441406 C 6.628906 1.402344 6.546875 1.28125 6.507812 1.15625 C 6.34375 0.628906 5.894531 0.304688 5.328125 0.304688 C 4.757812 0.304688 4.308594 0.628906 4.148438 1.199219 C 4.105469 1.363281 4.023438 1.441406 3.902344 1.484375 C 3.78125 1.523438 3.660156 1.484375 3.535156 1.402344 C 3.089844 1.035156 2.519531 1.035156 2.070312 1.363281 C 1.625 1.6875 1.460938 2.214844 1.625 2.746094 C 1.664062 2.867188 1.664062 2.988281 1.582031 3.109375 C 1.503906 3.234375 1.378906 3.273438 1.257812 3.273438 C 0.730469 3.273438 0.242188 3.597656 0.078125 4.128906 C -0.125 4.65625 0.078125 5.1875 0.566406 5.511719 C 0.648438 5.59375 0.730469 5.714844 0.730469 5.835938 C 0.730469 5.957031 0.6875 6.082031 0.566406 6.160156 C 0.078125 6.488281 -0.0859375 7.015625 0.078125 7.546875 C 0.242188 8.074219 0.6875 8.441406 1.257812 8.398438 C 1.378906 8.398438 1.503906 8.441406 1.582031 8.5625 C 1.664062 8.683594 1.664062 8.804688 1.625 8.929688 C 1.460938 9.457031 1.625 9.984375 2.070312 10.3125 C 2.519531 10.636719 3.089844 10.636719 3.535156 10.3125 C 3.660156 10.230469 3.78125 10.191406 3.902344 10.230469 C 4.023438 10.269531 4.105469 10.394531 4.148438 10.515625 C 4.308594 11.042969 4.757812 11.371094 5.328125 11.371094 C 5.855469 11.371094 6.34375 11.042969 6.507812 10.515625 C 6.546875 10.351562 6.628906 10.269531 6.75 10.230469 C 6.871094 10.191406 6.996094 10.230469 7.117188 10.3125 C 7.5625 10.636719 8.132812 10.636719 8.582031 10.3125 C 8.953125 10.039062 9.15625 9.625 9.09375 9.1875 L 14.238281 14.328125 C 13.957031 14.636719 13.503906 15.257812 13.503906 15.925781 C 13.503906 16.007812 13.503906 16.046875 13.542969 16.089844 C 13.625 16.292969 15.457031 20.484375 21.070312 23.65625 C 21.152344 23.695312 21.191406 23.695312 21.273438 23.695312 C 21.394531 23.695312 22.210938 23.613281 23.0625 22.761719 C 23.1875 22.679688 24 21.867188 24 20.96875 C 24 20.890625 24 20.847656 23.960938 20.808594 Z M 8.296875 8.074219 C 8.050781 8.398438 8.011719 8.847656 8.132812 9.214844 C 8.253906 9.457031 8.050781 9.621094 8.011719 9.660156 C 7.929688 9.703125 7.726562 9.824219 7.523438 9.660156 C 7.238281 9.417969 6.792969 9.335938 6.425781 9.457031 C 6.058594 9.578125 5.773438 9.90625 5.652344 10.269531 C 5.609375 10.515625 5.367188 10.554688 5.285156 10.554688 C 5.246094 10.554688 5 10.554688 4.917969 10.269531 C 4.839844 9.90625 4.511719 9.578125 4.148438 9.457031 C 4.023438 9.417969 3.902344 9.417969 3.78125 9.417969 C 3.496094 9.417969 3.25 9.496094 3.046875 9.660156 C 2.804688 9.824219 2.601562 9.703125 2.558594 9.660156 C 2.480469 9.621094 2.316406 9.457031 2.398438 9.214844 C 2.519531 8.804688 2.480469 8.398438 2.234375 8.074219 C 1.992188 7.75 1.625 7.585938 1.21875 7.585938 C 0.890625 7.585938 0.8125 7.339844 0.8125 7.300781 C 0.8125 7.261719 0.730469 7.015625 0.972656 6.855469 C 1.300781 6.609375 1.503906 6.242188 1.503906 5.835938 C 1.503906 5.429688 1.300781 5.0625 0.972656 4.820312 C 0.769531 4.699219 0.8125 4.453125 0.8125 4.371094 C 0.851562 4.289062 0.933594 4.085938 1.21875 4.085938 C 1.625 4.128906 1.992188 3.925781 2.234375 3.597656 C 2.480469 3.273438 2.519531 2.824219 2.398438 2.460938 C 2.316406 2.214844 2.480469 2.054688 2.558594 2.011719 C 2.640625 1.972656 2.84375 1.847656 3.046875 2.011719 C 3.332031 2.257812 3.78125 2.335938 4.1875 2.214844 C 4.554688 2.09375 4.839844 1.769531 4.960938 1.402344 C 5 1.15625 5.246094 1.117188 5.328125 1.117188 C 5.40625 1.117188 5.609375 1.15625 5.734375 1.402344 C 5.816406 1.769531 6.140625 2.09375 6.507812 2.214844 C 6.871094 2.335938 7.277344 2.257812 7.523438 2.011719 C 7.765625 1.847656 7.972656 1.972656 8.011719 2.011719 C 8.050781 2.054688 8.214844 2.214844 8.132812 2.460938 C 8.011719 2.867188 8.050781 3.273438 8.296875 3.597656 C 8.539062 3.925781 8.90625 4.085938 9.3125 4.085938 C 9.597656 4.085938 9.71875 4.332031 9.71875 4.371094 C 9.71875 4.414062 9.800781 4.65625 9.558594 4.820312 C 9.230469 5.0625 9.027344 5.429688 9.027344 5.835938 C 9.027344 6.242188 9.230469 6.609375 9.558594 6.855469 C 9.800781 7.015625 9.761719 7.21875 9.71875 7.300781 C 9.679688 7.382812 9.597656 7.585938 9.3125 7.585938 C 8.90625 7.546875 8.539062 7.75 8.296875 8.074219 Z M 22.535156 22.191406 C 22.046875 22.679688 21.601562 22.800781 21.394531 22.84375 C 16.554688 20.074219 14.644531 16.414062 14.359375 15.84375 C 14.398438 15.4375 14.765625 14.949219 15.050781 14.707031 C 15.15625 14.597656 15.261719 14.511719 15.363281 14.4375 C 15.378906 14.457031 15.394531 14.480469 15.414062 14.503906 L 16.472656 15.558594 C 16.554688 15.640625 16.636719 15.683594 16.757812 15.683594 C 16.839844 15.683594 16.960938 15.640625 17.042969 15.558594 C 17.207031 15.398438 17.207031 15.152344 17.042969 14.988281 L 16.121094 14.070312 C 16.148438 14.0625 16.167969 14.058594 16.1875 14.054688 C 20.109375 16.296875 22.109375 19.121094 22.878906 20.417969 L 22.089844 19.628906 C 21.925781 19.464844 21.679688 19.464844 21.519531 19.628906 C 21.355469 19.789062 21.355469 20.035156 21.519531 20.199219 L 22.453125 21.132812 C 22.535156 21.214844 22.617188 21.253906 22.738281 21.253906 C 22.859375 21.253906 22.941406 21.214844 23.023438 21.132812 C 23.09375 21.0625 23.132812 20.976562 23.144531 20.890625 C 23.179688 20.957031 23.207031 21.011719 23.226562 21.050781 C 23.1875 21.5 22.699219 22.027344 22.535156 22.191406 Z M 22.535156 22.191406"/>
    <path d="M 5.285156 4.371094 C 4.390625 4.371094 3.660156 5.105469 3.660156 6 C 3.660156 6.894531 4.390625 7.625 5.285156 7.625 C 6.179688 7.625 6.914062 6.894531 6.914062 6 C 6.914062 5.105469 6.179688 4.371094 5.285156 4.371094 Z M 5.285156 6.8125 C 4.839844 6.8125 4.472656 6.445312 4.472656 6 C 4.472656 5.550781 4.839844 5.1875 5.285156 5.1875 C 5.734375 5.1875 6.097656 5.550781 6.097656 6 C 6.097656 6.445312 5.734375 6.8125 5.285156 6.8125 Z M 5.285156 6.8125"/>
</svg>

<svg xmlns="http://www.w3.org/2000/svg" width="32" height="32" viewBox="0 0 24 24">
    <path d="M20.625 19.18a.399.399 0 0 0 0-.57l-2.688-2.684a.392.392 0 0 0-.57 0 .399.399 0 0 0 0 .57l2.688 2.684c.082.082.16.12.285.12.12 0 .242-.038.285-.12zm0 0M16.066 16.332a.399.399 0 0 0-.57 0 .399.399 0 0 0 0 .57l.977.977a.37.37 0 0 0 .285.121c.082 0 .203-.04.285-.121a.392.392 0 0 0 0-.57zm0 0M18.184 18.45a.392.392 0 0 0-.57 0 .392.392 0 0 0 0 .57l1.952 1.949c.082.082.16.125.286.125a.373.373 0 0 0 .285-.125.394.394 0 0 0 0-.567zm0 0M21.07 21.336a.399.399 0 0 0-.57 0 .399.399 0 0 0 0 .57l.488.489a.37.37 0 0 0 .285.12c.082 0 .204-.038.286-.12a.392.392 0 0 0 0-.57zm0 0"/>
    <path d="M23.96 20.809c-.081-.164-1.913-4.395-7.57-7.528-.038-.039-.12-.039-.203-.039-.066 0-.652.028-1.343.543l-5.39-5.387a1.216 1.216 0 0 0 1.12-.851c.164-.531-.039-1.059-.488-1.387-.082-.078-.164-.203-.164-.324s.043-.242.164-.324c.488-.324.652-.856.488-1.383-.164-.531-.61-.856-1.18-.856a.364.364 0 0 1-.324-.164.393.393 0 0 1-.043-.363c.164-.531 0-1.058-.445-1.383a1.213 1.213 0 0 0-1.465 0c-.12.078-.246.121-.367.078-.121-.039-.203-.16-.242-.285C6.344.63 5.895.305 5.328.305c-.57 0-1.02.324-1.18.894-.043.164-.125.242-.246.285-.12.04-.242 0-.367-.082a1.16 1.16 0 0 0-1.465-.039c-.445.325-.61.852-.445 1.383.04.121.04.242-.043.363-.078.125-.203.164-.324.164a1.22 1.22 0 0 0-1.18.856c-.203.527 0 1.059.488 1.383.082.082.164.203.164.324a.369.369 0 0 1-.164.324c-.488.328-.652.856-.488 1.387.164.527.61.894 1.18.851.12 0 .246.043.324.165a.4.4 0 0 1 .043.367c-.164.527 0 1.054.445 1.383.45.324 1.02.324 1.465 0 .125-.083.246-.122.367-.083.121.04.203.165.246.286.16.527.61.855 1.18.855.527 0 1.016-.328 1.18-.855.039-.164.12-.246.242-.286.121-.039.246 0 .367.082a1.225 1.225 0 0 0 1.465 0c.371-.273.574-.687.512-1.124l5.144 5.14c-.281.309-.734.93-.734 1.598 0 .082 0 .12.039.164.082.203 1.914 4.394 7.527 7.566.082.04.121.04.203.04.122 0 .938-.083 1.79-.934.125-.082.937-.895.937-1.793 0-.078 0-.121-.04-.16zM8.298 8.074c-.246.324-.285.774-.164 1.14.12.243-.082.407-.121.446-.082.043-.285.164-.489 0a1.186 1.186 0 0 0-1.097-.203c-.367.121-.653.45-.774.813-.043.246-.285.285-.367.285-.039 0-.285 0-.367-.285-.078-.364-.406-.692-.77-.813-.125-.039-.246-.039-.367-.039-.285 0-.531.078-.734.242-.242.164-.445.043-.488 0a.369.369 0 0 1-.16-.445c.12-.41.081-.817-.165-1.14-.242-.325-.609-.49-1.015-.49-.328 0-.407-.245-.407-.284 0-.04-.082-.285.16-.446.329-.246.532-.613.532-1.02 0-.405-.203-.772-.531-1.015-.203-.12-.16-.367-.16-.449.039-.082.12-.285.406-.285.406.043.773-.16 1.015-.488.246-.325.286-.774.164-1.137a.375.375 0 0 1 .16-.45c.083-.038.286-.163.489 0 .285.247.734.325 1.14.204.368-.121.653-.445.774-.813.039-.246.285-.285.367-.285.078 0 .281.04.406.285.082.368.407.692.774.813.363.12.77.043 1.015-.203.243-.164.45-.04.489 0 .039.043.203.203.12.449-.12.406-.081.812.165 1.137.242.328.61.488 1.015.488.286 0 .407.246.407.285 0 .043.082.285-.16.45-.329.242-.532.609-.532 1.015 0 .406.203.773.532 1.02.242.16.203.363.16.445-.04.082-.121.285-.406.285-.407-.04-.774.164-1.016.488zm14.238 14.117c-.488.489-.933.61-1.14.653-4.84-2.77-6.75-6.43-7.036-7 .04-.406.407-.895.692-1.137.105-.11.21-.195.312-.27l.051.067 1.059 1.055a.373.373 0 0 0 .285.125.442.442 0 0 0 .285-.125.392.392 0 0 0 0-.57l-.922-.919a.764.764 0 0 1 .067-.015c3.921 2.242 5.921 5.066 6.69 6.363l-.788-.79a.392.392 0 0 0-.57 0 .392.392 0 0 0 0 .571l.933.934a.37.37 0 0 0 .285.12.37.37 0 0 0 .285-.12c.07-.07.11-.156.122-.242.035.066.062.12.082.16-.04.449-.528.976-.692 1.14zm0 0"/>
    <path d="M5.285 4.371c-.894 0-1.625.734-1.625 1.629s.73 1.625 1.625 1.625 1.63-.73 1.63-1.625-.735-1.629-1.63-1.629zm0 2.441A.817.817 0 0 1 4.473 6a.812.812 0 1 1 .813.813zm0 0"/>
</svg>
